korla/mimetypes/symbolic/folder-visiting-symbolic.svg

<?xml version="1.0" encoding="UTF-8" standalone="no"?>
<!-- Created with Inkscape (http://www.inkscape.org/) -->

<svg
   xmlns:dc="http://purl.org/dc/elements/1.1/"
   xmlns:cc="http://creativecommons.org/ns#"
   xmlns:rdf="http://www.w3.org/1999/02/22-rdf-syntax-ns#"
   xmlns:svg="http://www.w3.org/2000/svg"
   xmlns="http://www.w3.org/2000/svg"
   xmlns:sodipodi="http://sodipodi.sourceforge.net/DTD/sodipodi-0.dtd"
   xmlns:inkscape="http://www.inkscape.org/namespaces/inkscape"
   id="svg7384"
   sodipodi:docname="folder-visiting-symbolic.svg"
   version="1.1"
   inkscape:version="0.91 r13725"
   height="36"
   width="36">
  <metadata
     id="metadata90">
    <rdf:RDF>
      <cc:Work
         rdf:about="">
        <dc:format>image/svg+xml</dc:format>
        <dc:type
           rdf:resource="http://purl.org/dc/dcmitype/StillImage" />
        <dc:title>Gnome Symbolic Icon Theme</dc:title>
      </cc:Work>
    </rdf:RDF>
  </metadata>
  <sodipodi:namedview
     inkscape:cy="9.8995036"
     pagecolor="#ffffff"
     borderopacity="1"
     showborder="true"
     inkscape:bbox-paths="false"
     guidetolerance="10"
     inkscape:window-width="1366"
     showguides="true"
     inkscape:object-nodes="true"
     inkscape:snap-bbox="true"
     inkscape:pageshadow="2"
     inkscape:guide-bbox="true"
     inkscape:snap-nodes="true"
     bordercolor="#666666"
     objecttolerance="10"
     id="namedview88"
     showgrid="false"
     inkscape:window-maximized="1"
     inkscape:window-x="0"
     inkscape:snap-global="true"
     inkscape:window-y="28"
     gridtolerance="10"
     inkscape:window-height="714"
     inkscape:snap-to-guides="true"
     inkscape:current-layer="layer13"
     inkscape:zoom="4"
     inkscape:cx="54.145534"
     inkscape:snap-grids="true"
     inkscape:pageopacity="1">
    <inkscape:grid
       spacingx="1px"
       spacingy="1px"
       id="grid4866"
       empspacing="2"
       enabled="true"
       type="xygrid"
       snapvisiblegridlinesonly="true"
       visible="true" />
  </sodipodi:namedview>
  <title
     id="title9167">Gnome Symbolic Icon Theme</title>
  <defs
     id="defs7386" />
  <g
     inkscape:label="status"
     transform="translate(-442,-156)"
     inkscape:groupmode="layer"
     id="layer9"
     style="display:inline" />
  <g
     inkscape:label="devices"
     transform="translate(-442,-156)"
     inkscape:groupmode="layer"
     id="layer10" />
  <g
     inkscape:label="apps"
     transform="translate(-442,-156)"
     inkscape:groupmode="layer"
     id="layer11" />
  <g
     inkscape:label="actions"
     transform="translate(-442,-156)"
     inkscape:groupmode="layer"
     id="layer12" />
  <g
     inkscape:label="places"
     transform="translate(-442,-156)"
     inkscape:groupmode="layer"
     id="layer13">
    <path
       style="opacity:0.75;fill:#000000;fill-opacity:1"
       d="M 2.1210938,1.9746094 C 0.94588218,1.9746094 0,2.9204914 0,4.0957031 l 0,3.0253907 0,4.0000002 0,0.748047 0,17.009765 C 0,30.054118 0.94588228,31 2.1210938,31 L 33.878906,31 C 35.054118,31 36,30.054118 36,28.878906 L 36,11.121094 36,7.1210938 C 36,5.9458823 35.054118,5 33.878906,5 L 14.341834,5 C 13.037165,4.9489542 12.712108,4.3526942 12.000497,3.4106539 11.288886,2.4686136 10.833147,1.9746094 9.8789062,1.9746094 Z m 1.1660156,2 5.4257812,0 c 1.3355064,0 1.7570784,1.0151208 2.2718294,1.5298718 C 11.499471,6.0192322 12.943135,7 13.75582,7 L 32.712891,7 C 33.425742,7 34,7.5742584 34,8.2871094 l 0,7.7792966 c -0.04097,-0.0023 -0.07952,-0.01172 -0.121094,-0.01172 l -31.7578122,0 c -0.041573,0 -0.080126,0.0094 -0.1210938,0.01172 L 2,5.2617188 C 2,4.5488678 2.5742584,3.9746094 3.2871094,3.9746094 Z m 0,14.0800776 29.4257816,0 C 33.425742,18.054687 34,18.628945 34,19.341796 l 0,8.371095 C 34,28.425742 33.425742,29 32.712891,29 L 3.2871094,29 C 2.5742584,29 2,28.425742 2,27.712891 l 0,-3.767579 0,-4.603516 c 0,-0.712851 0.5742584,-1.287109 1.2871094,-1.287109 z"
       id="rect4155"
       inkscape:connector-curvature="0"
       sodipodi:nodetypes="sscccsssscssczsssczssscsscssssssssscss"
       transform="translate(442,156)" />
    <path
       sodipodi:nodetypes="sssssssss"
       inkscape:connector-curvature="0"
       id="path4170"
       d="m 3.2871094,18.054687 29.4257816,0 C 33.425742,18.054687 34,18.628945 34,19.341796 l 0,8.371095 C 34,28.425742 33.425742,29 32.712891,29 L 3.2871094,29 C 2.5742584,29 2,28.425742 2,27.712891 l 0,-8.371095 c 0,-0.712851 0.5742584,-1.287109 1.2871094,-1.287109 z"
       style="opacity:0.2;fill:#000000;fill-opacity:0.90196078"
       transform="translate(442,156)" />
    <path
       style="opacity:0.3;fill:#000000;fill-opacity:1"
       d="M 2 27 L 2 27.712891 C 2 28.425742 2.5742584 29 3.2871094 29 L 32.712891 29 C 33.425742 29 34 28.425742 34 27.712891 L 34 27 L 2 27 z "
       transform="translate(442,156)"
       id="path4182" />
  </g>
  <g
     inkscape:label="mimetypes"
     transform="translate(-442,-156)"
     inkscape:groupmode="layer"
     id="layer14" />
  <g
     inkscape:label="emblems"
     transform="translate(-442,-156)"
     inkscape:groupmode="layer"
     id="layer15"
     style="display:inline" />
</svg>

<?xml version="1.0" encoding="UTF-8" standalone="no"?><!DOCTYPE svg PUBLIC "-//W3C//DTD SVG 1.1//EN" "http://www.w3.org/Graphics/SVG/1.1/DTD/svg11.dtd"><svg width="100%" height="100%" viewBox="0 0 36 36" version="1.1" xmlns="http://www.w3.org/2000/svg" xmlns:xlink="http://www.w3.org/1999/xlink" xml:space="preserve" xmlns:serif="http://www.serif.com/" style="fill-rule:evenodd;clip-rule:evenodd;stroke-linejoin:round;stroke-miterlimit:1.41421;"><path id="rect4155" d="M2.121,1.975c-1.175,0 -2.121,0.945 -2.121,2.121l0,24.783c0,1.175 0.946,2.121 2.121,2.121l31.758,0c1.175,0 2.121,-0.946 2.121,-2.121l0,-17.758l0,-4c0,-1.175 -0.946,-2.121 -2.121,-2.121l-19.537,0c-1.305,-0.051 -1.63,-0.647 -2.342,-1.589c-0.711,-0.942 -1.167,-1.436 -2.121,-1.436l-7.758,0Zm1.166,2l5.426,0c1.335,0 1.757,1.015 2.272,1.529c0.514,0.515 1.958,1.496 2.771,1.496l18.957,0c0.713,0 1.287,0.574 1.287,1.287l0,7.779c-0.041,-0.002 -0.08,-0.011 -0.121,-0.011l-31.758,0c-0.041,0 -0.08,0.009 -0.121,0.011l0,-10.804c0,-0.713 0.574,-1.287 1.287,-1.287Zm0,14.08l29.426,0c0.713,0 1.287,0.574 1.287,1.287l0,8.371c0,0.713 -0.574,1.287 -1.287,1.287l-29.426,0c-0.713,0 -1.287,-0.574 -1.287,-1.287l0,-3.768l0,-4.603c0,-0.713 0.574,-1.287 1.287,-1.287Z" style="fill-opacity:0.75;fill-rule:nonzero;"/><path id="path4170" d="M3.287,18.055l29.426,0c0.713,0 1.287,0.574 1.287,1.287l0,8.371c0,0.713 -0.574,1.287 -1.287,1.287l-29.426,0c-0.713,0 -1.287,-0.574 -1.287,-1.287l0,-8.371c0,-0.713 0.574,-1.287 1.287,-1.287Z" style="fill-opacity:0.179608;fill-rule:nonzero;"/><path id="path4182" d="M2,27l0,0.713c0,0.713 0.574,1.287 1.287,1.287l29.426,0c0.713,0 1.287,-0.574 1.287,-1.287l0,-0.713l-32,0Z" style="fill-opacity:0.0752941;fill-rule:nonzero;"/></svg>
